X:208
T:Humours of Whiskey
Z:Jack Campin, http://www.campin.me.uk/
F:Jack Campin's Nine-Note Tunebook
% last edit 03-02-2013
S:Harding's All-Round Collection
N:version of the Scottish/English "Follow her over the border"
M:9/8
L:1/8
Q:3/8=112
K:DMin
A2G FDD FDD|A2G ADD ABc|A2G ADD ADD|GAG G2F EDC:|
F2A ABA ABA|F2A ABA GEC|F2A ABA ABA|GAG G2F EDC:|

